svg/icon.svg

<?xml version="1.0" encoding="UTF-8" standalone="no"?>
<svg
   width="24"
   height="24"
   viewBox="0 0 24 24"
   fill="none"
   version="1.1"
   id="svg60"
   sodipodi:docname="icon.svg"
   inkscape:version="1.2.1 (9c6d41e410, 2022-07-14, custom)"
   xmlns:inkscape="http://www.inkscape.org/namespaces/inkscape"
   xmlns:sodipodi="http://sodipodi.sourceforge.net/DTD/sodipodi-0.dtd"
   xmlns="http://www.w3.org/2000/svg"
   xmlns:svg="http://www.w3.org/2000/svg">
  <sodipodi:namedview
     id="namedview62"
     pagecolor="#ffffff"
     bordercolor="#666666"
     borderopacity="1.0"
     inkscape:showpageshadow="2"
     inkscape:pageopacity="0.0"
     inkscape:pagecheckerboard="0"
     inkscape:deskcolor="#d1d1d1"
     showgrid="false"
     inkscape:zoom="22.8125"
     inkscape:cx="15.583562"
     inkscape:cy="16"
     inkscape:window-width="1920"
     inkscape:window-height="1022"
     inkscape:window-x="1366"
     inkscape:window-y="0"
     inkscape:window-maximized="1"
     inkscape:current-layer="svg60" />
  <g
     id="g930"
     transform="matrix(0.84002659,0,0,0.84002659,-1.4404548,-1.4406516)">
    <path
       fill-rule="evenodd"
       clip-rule="evenodd"
       d="m 9.06669,21.4003 c 2.43911,0 4.41631,-1.9578 4.41631,-4.3729 0,-2.4151 -1.9772,-4.3729 -4.41631,-4.3729 -2.43907,0 -4.41632,1.9578 -4.41632,4.3729 0,2.4151 1.97725,4.3729 4.41632,4.3729 z m 0,1.9642 c 3.53461,0 6.40001,-2.8372 6.40001,-6.3371 0,-3.4999 -2.8654,-6.3372 -6.40001,-6.3372 -3.53463,0 -6.40002,2.8373 -6.40002,6.3372 0,3.4999 2.86539,6.3371 6.40002,6.3371 z"
       fill="url(#paint0_linear_5_120)"
       id="path2"
       style="fill:url(#paint0_linear_5_120)" />
    <path
       fill-rule="evenodd"
       clip-rule="evenodd"
       d="m 22.9334,21.4002 c 2.439,0 4.4163,-1.9579 4.4163,-4.373 0,-2.4151 -1.9773,-4.3729 -4.4163,-4.3729 -2.4391,0 -4.4163,1.9578 -4.4163,4.3729 0,2.4151 1.9772,4.373 4.4163,4.373 z m 0,1.9642 c 3.5346,0 6.4,-2.8373 6.4,-6.3372 0,-3.4999 -2.8654,-6.3371 -6.4,-6.3371 -3.5347,0 -6.4,2.8372 -6.4,6.3371 0,3.4999 2.8653,6.3372 6.4,6.3372 z"
       fill="url(#paint1_linear_5_120)"
       id="path4"
       style="fill:url(#paint1_linear_5_120)" />
    <path
       d="m 23.1886,15.9479 c -0.8898,0 -1.6688,0.57 -1.7559,1.3607 -0.026,0.2358 0.1901,0.4081 0.4297,0.4081 h 2.704 c 0.237,0 0.452,-0.1695 0.4191,-0.4019 -0.1064,-0.7518 -0.9137,-1.3669 -1.7969,-1.3669 z"
       fill="url(#paint2_linear_5_120)"
       id="path6"
       style="fill:url(#paint2_linear_5_120)" />
    <path
       d="m 8.8967,15.9479 c -0.88983,0 -1.66878,0.57 -1.7559,1.3607 -0.02599,0.2358 0.19016,0.4081 0.42975,0.4081 h 2.70395 c 0.237,0 0.452,-0.1695 0.4191,-0.4019 C 10.5872,16.563 9.77994,15.9479 8.8967,15.9479 Z"
       fill="url(#paint3_linear_5_120)"
       id="path8"
       style="fill:url(#paint3_linear_5_120)" />
    <path
       d="m 13.8723,23.8498 c -0.1157,-0.9816 0.6573,-1.859 1.6554,-1.859 h 1.0016 c 0.973,0 1.7319,0.8452 1.6351,1.8039 -0.0889,0.8808 -0.4563,1.7216 -1.0483,2.3849 -0.5902,0.6613 -1.6413,0.6463 -2.2226,-0.0226 -0.5614,-0.646 -0.9215,-1.4608 -1.0212,-2.3072 z"
       fill="url(#paint4_linear_5_120)"
       id="path10"
       style="fill:url(#paint4_linear_5_120)" />
    <path
       d="m 13.5469,9.66771 c -0.3887,0.03499 -0.414,0.31396 -0.3607,0.51879 0.0202,0.0776 0.0738,0.14 0.1373,0.1896 0.5475,0.4274 1.5155,1.254 2.1056,1.9825 0.2189,0.2702 0.4146,0.6546 0.7446,0.5398 0.1178,-0.0409 0.232,-0.1694 0.3014,-0.2721 0.5978,-0.8846 1.6675,-1.8293 2.2189,-2.2631 0.0526,-0.0413 0.0998,-0.0908 0.1214,-0.1538 0.11,-0.32087 -0.2197,-0.49332 -0.4151,-0.54169 -2.0267,-0.35497 -3.1548,-0.34924 -4.8534,0 z"
       fill="url(#paint5_linear_5_120)"
       id="path12"
       style="fill:url(#paint5_linear_5_120)" />
    <path
       d="M 10.0422,9.66794 C 8.02878,9.14973 5.96376,10.1861 5.91213,10.1861 5.70563,10.2276 5.65401,10.0307 5.65401,9.92704 V 6.46325 c 0,-0.10841 0.01742,-0.21612 0.05162,-0.31911 L 5.75726,6.0405 C 6.06701,5.5223 6.53164,5.10773 7.51253,5.47048 c 0.98088,0.36274 2.32315,2.69467 2.78777,3.5238 0.3717,0.6633 -0.0172,0.72548 -0.2581,0.67366 z"
       fill="url(#paint6_linear_5_120)"
       id="path14"
       style="fill:url(#paint6_linear_5_120)" />
    <path
       d="m 21.9584,9.70182 c 2.0134,-0.51821 4.0784,0.51818 4.13,0.51818 0.2065,0.0415 0.2581,-0.1554 0.2581,-0.25908 V 6.49713 c 0,-0.10841 -0.0174,-0.21613 -0.0516,-0.31911 L 26.2433,6.07438 C 25.9335,5.55617 25.4689,5.14161 24.488,5.50435 c -0.9809,0.36274 -2.3231,2.69467 -2.7878,3.5238 -0.3717,0.6633 0.0172,0.72549 0.2582,0.67367 z"
       fill="url(#paint7_linear_5_120)"
       id="path16"
       style="fill:url(#paint7_linear_5_120)" />
  </g>
  <defs
     id="defs58">
    <linearGradient
       id="paint0_linear_5_120"
       x1="2.6666701"
       y1="10.6902"
       x2="15.3404"
       y2="23.4897"
       gradientUnits="userSpaceOnUse">
      <stop
         stop-color="#13EC91"
         id="stop18" />
      <stop
         offset="1"
         stop-color="#2ED671"
         id="stop20" />
    </linearGradient>
    <linearGradient
       id="paint1_linear_5_120"
       x1="16.5334"
       y1="10.6901"
       x2="29.207001"
       y2="23.4895"
       gradientUnits="userSpaceOnUse">
      <stop
         stop-color="#13EC91"
         id="stop23" />
      <stop
         offset="1"
         stop-color="#2ED671"
         id="stop25" />
    </linearGradient>
    <linearGradient
       id="paint2_linear_5_120"
       x1="21.430599"
       y1="15.9479"
       x2="22.8407"
       y2="18.784599"
       gradientUnits="userSpaceOnUse">
      <stop
         stop-color="#13EC91"
         id="stop28" />
      <stop
         offset="1"
         stop-color="#2ED671"
         id="stop30" />
    </linearGradient>
    <linearGradient
       id="paint3_linear_5_120"
       x1="7.13867"
       y1="15.9479"
       x2="8.54881"
       y2="18.784599"
       gradientUnits="userSpaceOnUse">
      <stop
         stop-color="#13EC91"
         id="stop33" />
      <stop
         offset="1"
         stop-color="#2ED671"
         id="stop35" />
    </linearGradient>
    <linearGradient
       id="paint4_linear_5_120"
       x1="16.056601"
       y1="21.7831"
       x2="16.8442"
       y2="26.815901"
       gradientUnits="userSpaceOnUse">
      <stop
         stop-color="#13EC91"
         id="stop38" />
      <stop
         offset="1"
         stop-color="#2ED671"
         stop-opacity="0.6"
         id="stop40" />
    </linearGradient>
    <linearGradient
       id="paint5_linear_5_120"
       x1="16.0567"
       y1="9.26122"
       x2="14.6202"
       y2="12.2547"
       gradientUnits="userSpaceOnUse">
      <stop
         stop-color="#13EC91"
         id="stop43" />
      <stop
         offset="1"
         stop-color="#2ED671"
         stop-opacity="0.8"
         id="stop45" />
    </linearGradient>
    <linearGradient
       id="paint6_linear_5_120"
       x1="5.6540098"
       y1="5.3333101"
       x2="10.5121"
       y2="10.133"
       gradientUnits="userSpaceOnUse">
      <stop
         stop-color="#13EC91"
         id="stop48" />
      <stop
         offset="1"
         stop-color="#2ED671"
         stop-opacity="0.6"
         id="stop50" />
    </linearGradient>
    <linearGradient
       id="paint7_linear_5_120"
       x1="26.3465"
       y1="5.3671899"
       x2="21.4884"
       y2="10.1669"
       gradientUnits="userSpaceOnUse">
      <stop
         stop-color="#13EC91"
         id="stop53" />
      <stop
         offset="1"
         stop-color="#2ED671"
         stop-opacity="0.6"
         id="stop55" />
    </linearGradient>
  </defs>
</svg>

<svg width="32" height="32" viewBox="0 0 32 32" fill="none" xmlns="http://www.w3.org/2000/svg">
<path fill-rule="evenodd" clip-rule="evenodd" d="M9.06669 21.4003C11.5058 21.4003 13.483 19.4425 13.483 17.0274C13.483 14.6123 11.5058 12.6545 9.06669 12.6545C6.62762 12.6545 4.65037 14.6123 4.65037 17.0274C4.65037 19.4425 6.62762 21.4003 9.06669 21.4003ZM9.06669 23.3645C12.6013 23.3645 15.4667 20.5273 15.4667 17.0274C15.4667 13.5275 12.6013 10.6902 9.06669 10.6902C5.53206 10.6902 2.66667 13.5275 2.66667 17.0274C2.66667 20.5273 5.53206 23.3645 9.06669 23.3645Z" fill="url(#paint0_linear_5_120)"/>
<path fill-rule="evenodd" clip-rule="evenodd" d="M22.9334 21.4002C25.3724 21.4002 27.3497 19.4423 27.3497 17.0272C27.3497 14.6121 25.3724 12.6543 22.9334 12.6543C20.4943 12.6543 18.5171 14.6121 18.5171 17.0272C18.5171 19.4423 20.4943 21.4002 22.9334 21.4002ZM22.9334 23.3644C26.468 23.3644 29.3334 20.5271 29.3334 17.0272C29.3334 13.5273 26.468 10.6901 22.9334 10.6901C19.3987 10.6901 16.5334 13.5273 16.5334 17.0272C16.5334 20.5271 19.3987 23.3644 22.9334 23.3644Z" fill="url(#paint1_linear_5_120)"/>
<path d="M23.1886 15.9479C22.2988 15.9479 21.5198 16.5179 21.4327 17.3086C21.4067 17.5444 21.6228 17.7167 21.8624 17.7167H24.5664C24.8034 17.7167 25.0184 17.5472 24.9855 17.3148C24.8791 16.563 24.0718 15.9479 23.1886 15.9479Z" fill="url(#paint2_linear_5_120)"/>
<path d="M8.8967 15.9479C8.00687 15.9479 7.22792 16.5179 7.1408 17.3086C7.11481 17.5444 7.33096 17.7167 7.57055 17.7167H10.2745C10.5115 17.7167 10.7265 17.5472 10.6936 17.3148C10.5872 16.563 9.77994 15.9479 8.8967 15.9479Z" fill="url(#paint3_linear_5_120)"/>
<path d="M13.8723 23.8498C13.7566 22.8682 14.5296 21.9908 15.5277 21.9908H16.5293C17.5023 21.9908 18.2612 22.836 18.1644 23.7947C18.0755 24.6755 17.7081 25.5163 17.1161 26.1796C16.5259 26.8409 15.4748 26.8259 14.8935 26.157C14.3321 25.511 13.972 24.6962 13.8723 23.8498Z" fill="url(#paint4_linear_5_120)"/>
<path d="M13.5469 9.66771C13.1582 9.7027 13.1329 9.98167 13.1862 10.1865C13.2064 10.2641 13.26 10.3265 13.3235 10.3761C13.871 10.8035 14.839 11.6301 15.4291 12.3586C15.648 12.6288 15.8437 13.0132 16.1737 12.8984C16.2915 12.8575 16.4057 12.729 16.4751 12.6263C17.0729 11.7417 18.1426 10.797 18.694 10.3632C18.7466 10.3219 18.7938 10.2724 18.8154 10.2094C18.9254 9.88853 18.5957 9.71608 18.4003 9.66771C16.3736 9.31274 15.2455 9.31847 13.5469 9.66771Z" fill="url(#paint5_linear_5_120)"/>
<path d="M10.0422 9.66794C8.02878 9.14973 5.96376 10.1861 5.91213 10.1861C5.70563 10.2276 5.65401 10.0307 5.65401 9.92704V6.46325C5.65401 6.35484 5.67143 6.24713 5.70563 6.14414L5.75726 6.0405C6.06701 5.5223 6.53164 5.10773 7.51253 5.47048C8.49341 5.83322 9.83568 8.16515 10.3003 8.99428C10.672 9.65758 10.2831 9.71976 10.0422 9.66794Z" fill="url(#paint6_linear_5_120)"/>
<path d="M21.9584 9.70182C23.9718 9.18361 26.0368 10.22 26.0884 10.22C26.2949 10.2615 26.3465 10.0646 26.3465 9.96092V6.49713C26.3465 6.38872 26.3291 6.281 26.2949 6.17802L26.2433 6.07438C25.9335 5.55617 25.4689 5.14161 24.488 5.50435C23.5071 5.86709 22.1649 8.19902 21.7002 9.02815C21.3285 9.69145 21.7174 9.75364 21.9584 9.70182Z" fill="url(#paint7_linear_5_120)"/>
<defs>
<linearGradient id="paint0_linear_5_120" x1="2.66667" y1="10.6902" x2="15.3404" y2="23.4897" gradientUnits="userSpaceOnUse">
<stop stop-color="#13EC91"/>
<stop offset="1" stop-color="#2ED671"/>
</linearGradient>
<linearGradient id="paint1_linear_5_120" x1="16.5334" y1="10.6901" x2="29.207" y2="23.4895" gradientUnits="userSpaceOnUse">
<stop stop-color="#13EC91"/>
<stop offset="1" stop-color="#2ED671"/>
</linearGradient>
<linearGradient id="paint2_linear_5_120" x1="21.4306" y1="15.9479" x2="22.8407" y2="18.7846" gradientUnits="userSpaceOnUse">
<stop stop-color="#13EC91"/>
<stop offset="1" stop-color="#2ED671"/>
</linearGradient>
<linearGradient id="paint3_linear_5_120" x1="7.13867" y1="15.9479" x2="8.54881" y2="18.7846" gradientUnits="userSpaceOnUse">
<stop stop-color="#13EC91"/>
<stop offset="1" stop-color="#2ED671"/>
</linearGradient>
<linearGradient id="paint4_linear_5_120" x1="16.0566" y1="21.7831" x2="16.8442" y2="26.8159" gradientUnits="userSpaceOnUse">
<stop stop-color="#13EC91"/>
<stop offset="1" stop-color="#2ED671" stop-opacity="0.6"/>
</linearGradient>
<linearGradient id="paint5_linear_5_120" x1="16.0567" y1="9.26122" x2="14.6202" y2="12.2547" gradientUnits="userSpaceOnUse">
<stop stop-color="#13EC91"/>
<stop offset="1" stop-color="#2ED671" stop-opacity="0.8"/>
</linearGradient>
<linearGradient id="paint6_linear_5_120" x1="5.65401" y1="5.33331" x2="10.5121" y2="10.133" gradientUnits="userSpaceOnUse">
<stop stop-color="#13EC91"/>
<stop offset="1" stop-color="#2ED671" stop-opacity="0.6"/>
</linearGradient>
<linearGradient id="paint7_linear_5_120" x1="26.3465" y1="5.36719" x2="21.4884" y2="10.1669" gradientUnits="userSpaceOnUse">
<stop stop-color="#13EC91"/>
<stop offset="1" stop-color="#2ED671" stop-opacity="0.6"/>
</linearGradient>
</defs>
</svg>
